X: 37077
T: Silver Spire, The
R: reel
M: 4/4
K: Dmajor
A|:D2 F/E/D FA ~A2|dcde fdAF|~G2BG ~F2AF|GEFD ~E3 A|
D2 F/E/D FA ~A2|dcde fdAF|GABG FGAF|EAGE D3z1:|
|:ABcd efge|fdAF GABc|dcdA Bcde|fdgf ~e3 c|
defd cdec|dcdB AF~F2|GABG FGAF|EAGE D3z1:|

